public/assets/vectors/stack-overflow.svg

<?xml version="1.0" encoding="UTF-8" standalone="no"?>
<svg
   xmlns:dc="http://purl.org/dc/elements/1.1/"
   xmlns:cc="http://creativecommons.org/ns#"
   xmlns:rdf="http://www.w3.org/1999/02/22-rdf-syntax-ns#"
   xmlns:svg="http://www.w3.org/2000/svg"
   xmlns="http://www.w3.org/2000/svg"
   xmlns:sodipodi="http://sodipodi.sourceforge.net/DTD/sodipodi-0.dtd"
   xmlns:inkscape="http://www.inkscape.org/namespaces/inkscape"
   width="100pt"
   height="100pt"
   viewBox="0 0 100 100"
   version="1.1"
   id="svg19"
   sodipodi:docname="stack-overflow.svg"
   inkscape:version="0.92.4 (5da689c313, 2019-01-14)">
  <metadata
     id="metadata25">
    <rdf:RDF>
      <cc:Work
         rdf:about="">
        <dc:format>image/svg+xml</dc:format>
        <dc:type
           rdf:resource="http://purl.org/dc/dcmitype/StillImage" />
        <dc:title></dc:title>
      </cc:Work>
    </rdf:RDF>
  </metadata>
  <defs
     id="defs23" />
  <sodipodi:namedview
     pagecolor="#ffffff"
     bordercolor="#666666"
     borderopacity="1"
     objecttolerance="10"
     gridtolerance="10"
     guidetolerance="10"
     inkscape:pageopacity="0"
     inkscape:pageshadow="2"
     inkscape:window-width="1600"
     inkscape:window-height="877"
     id="namedview21"
     showgrid="false"
     inkscape:document-units="pt"
     inkscape:zoom="2.2125"
     inkscape:cx="53.333333"
     inkscape:cy="53.333333"
     inkscape:window-x="-8"
     inkscape:window-y="90"
     inkscape:window-maximized="1"
     inkscape:current-layer="svg19" />
  <g
     id="surface177315"
     transform="matrix(1.3333334,0,0,1.3333334,-3.338544,-3.333336)">
    <path
       style="fill:#5e7d8a;fill-opacity:1;fill-rule:nonzero;stroke:none"
       d="m 15,46.667969 h 5 V 70 h -5 z m 0,0"
       id="path2"
       inkscape:connector-curvature="0" />
    <path
       style="fill:#5e7d8a;fill-opacity:1;fill-rule:nonzero;stroke:none"
       d="m 15,65 h 43.332031 v 5 H 15 Z m 0,0"
       id="path4"
       inkscape:connector-curvature="0" />
    <path
       style="fill:#5e7d8a;fill-opacity:1;fill-rule:nonzero;stroke:none"
       d="m 53.332031,46.667969 h 5 V 70 h -5 z M 25,56.667969 h 23.332031 v 5 H 25 Z m 0,0"
       id="path6"
       inkscape:connector-curvature="0" />
    <path
       style="fill:#a68a6e;fill-opacity:1;fill-rule:nonzero;stroke:none"
       d="m 25.132812,47.097656 23.199219,2.5 -0.53125,4.96875 -23.203125,-2.496094 z m 0,0"
       id="path8"
       inkscape:connector-curvature="0" />
    <path
       style="fill:#ee6b00;fill-opacity:1;fill-rule:nonzero;stroke:none"
       d="M 61.449219,10 65.007812,33.058594 60.0625,33.820312 56.507812,10.761719 Z m 0,0"
       id="path10"
       inkscape:connector-curvature="0" />
    <path
       style="fill:#ff9700;fill-opacity:1;fill-rule:nonzero;stroke:none"
       d="M 47.449219,13.726562 58.835938,34.089844 54.46875,36.53125 43.085938,16.167969 Z m 0,0"
       id="path12"
       inkscape:connector-curvature="0" />
    <path
       style="fill:#d18a26;fill-opacity:1;fill-rule:nonzero;stroke:none"
       d="M 34.167969,24.25 53.335938,37.554688 50.480469,41.664062 31.316406,28.359375 Z m 0,0"
       id="path14"
       inkscape:connector-curvature="0" />
    <path
       style="fill:#bf9451;fill-opacity:1;fill-rule:nonzero;stroke:none"
       d="m 28.164062,35.363281 21.957032,7.898438 -1.695313,4.707031 -21.953125,-7.898438 z m 0,0"
       id="path16"
       inkscape:connector-curvature="0" />
  </g>
</svg>

<?xml version="1.0" encoding="UTF-8"?>
<svg xmlns="http://www.w3.org/2000/svg" xmlns:xlink="http://www.w3.org/1999/xlink" width="80pt" height="80pt" viewBox="0 0 80 80" version="1.1">
<g id="surface177315">
<path style=" stroke:none;fill-rule:nonzero;fill:rgb(37.647059%,49.019608%,54.509804%);fill-opacity:1;" d="M 15 46.667969 L 20 46.667969 L 20 70 L 15 70 Z M 15 46.667969 "/>
<path style=" stroke:none;fill-rule:nonzero;fill:rgb(37.647059%,49.019608%,54.509804%);fill-opacity:1;" d="M 15 65 L 58.332031 65 L 58.332031 70 L 15 70 Z M 15 65 "/>
<path style=" stroke:none;fill-rule:nonzero;fill:rgb(37.647059%,49.019608%,54.509804%);fill-opacity:1;" d="M 53.332031 46.667969 L 58.332031 46.667969 L 58.332031 70 L 53.332031 70 Z M 25 56.667969 L 48.332031 56.667969 L 48.332031 61.667969 L 25 61.667969 Z M 25 56.667969 "/>
<path style=" stroke:none;fill-rule:nonzero;fill:rgb(65.098039%,54.117647%,43.137255%);fill-opacity:1;" d="M 25.132812 47.097656 L 48.332031 49.597656 L 47.800781 54.566406 L 24.597656 52.070312 Z M 25.132812 47.097656 "/>
<path style=" stroke:none;fill-rule:nonzero;fill:rgb(93.72549%,42.352941%,0%);fill-opacity:1;" d="M 61.449219 10 L 65.007812 33.058594 L 60.0625 33.820312 L 56.507812 10.761719 Z M 61.449219 10 "/>
<path style=" stroke:none;fill-rule:nonzero;fill:rgb(100%,59.607843%,0%);fill-opacity:1;" d="M 47.449219 13.726562 L 58.835938 34.089844 L 54.46875 36.53125 L 43.085938 16.167969 Z M 47.449219 13.726562 "/>
<path style=" stroke:none;fill-rule:nonzero;fill:rgb(82.745098%,54.509804%,15.686275%);fill-opacity:1;" d="M 34.167969 24.25 L 53.335938 37.554688 L 50.480469 41.664062 L 31.316406 28.359375 Z M 34.167969 24.25 "/>
<path style=" stroke:none;fill-rule:nonzero;fill:rgb(75.294118%,58.431373%,32.54902%);fill-opacity:1;" d="M 28.164062 35.363281 L 50.121094 43.261719 L 48.425781 47.96875 L 26.472656 40.070312 Z M 28.164062 35.363281 "/>
</g>
</svg>
